assets/images/favicon.svg

<svg width="300" height="280" viewBox="0 0 300 280" fill="none" xmlns="http://www.w3.org/2000/svg">
<g filter="url(#filter0_d_1_13)">
<path d="M78 126C78 86.2355 110.236 54 150 54C189.765 54 222 86.2355 222 126C222 165.765 189.765 198 150 198C110.236 198 78 165.765 78 126Z" fill="white"/>
</g>
<path d="M182.422 127.497C182.124 127.497 181.83 127.435 181.558 127.315L163.43 119.222C162.671 118.882 162.182 118.129 162.182 117.299C162.182 116.469 162.671 115.716 163.43 115.376L181.558 107.311C182.623 106.84 183.87 107.315 184.348 108.375C184.82 109.438 184.342 110.682 183.278 111.157L169.467 117.302L183.281 123.469C184.191 123.874 184.694 124.858 184.486 125.83C184.279 126.802 183.419 127.497 182.422 127.497Z" fill="#67BECE"/>
<path d="M157.716 156.857C137.787 156.857 120.364 143.445 115.355 124.238C115.061 123.114 115.737 121.964 116.865 121.671C117.993 121.378 119.146 122.053 119.44 123.177C123.985 140.54 139.717 152.653 157.716 152.646C158.883 152.646 159.828 153.589 159.828 154.752C159.828 155.914 158.883 156.857 157.716 156.857Z" fill="#3F54A3"/>
<path d="M150.441 139.374C149.275 139.374 148.329 138.432 148.329 137.269V97.2482C148.329 96.0854 149.275 95.1428 150.441 95.1428C151.607 95.1428 152.553 96.0854 152.553 97.2482V137.269C152.553 138.432 151.607 139.374 150.441 139.374Z" fill="#67BECE"/>
<defs>
<filter id="filter0_d_1_13" x="0" y="-20" width="300" height="300" filterUnits="userSpaceOnUse" color-interpolation-filters="sRGB">
<feFlood flood-opacity="0" result="BackgroundImageFix"/>
<feColorMatrix in="SourceAlpha" type="matrix" values="0 0 0 0 0 0 0 0 0 0 0 0 0 0 0 0 0 0 127 0" result="hardAlpha"/>
<feOffset dy="4"/>
<feGaussianBlur stdDeviation="39"/>
<feComposite in2="hardAlpha" operator="out"/>
<feColorMatrix type="matrix" values="0 0 0 0 0 0 0 0 0 0 0 0 0 0 0 0 0 0 0.15 0"/>
<feBlend mode="normal" in2="BackgroundImageFix" result="effect1_dropShadow_1_13"/>
<feBlend mode="normal" in="SourceGraphic" in2="effect1_dropShadow_1_13" result="shape"/>
</filter>
</defs>
</svg>

<svg width="144" height="144" viewBox="78 54 144 144" fill="none" xmlns="http://www.w3.org/2000/svg">
  <!-- Основной круг -->
  <circle cx="150" cy="126" r="72" fill="white"/>
  
  <!-- Голубая стрелка -->
  <path d="M182.4 127.5c-0.3 0-0.6-0.1-0.9-0.2l-18.1-8.1c-0.8-0.3-1.3-1.1-1.3-1.9 0-0.8 0.5-1.6 1.3-1.9l18.1-8.1c1.1-0.5 2.3 0 2.8 1 0.5 1.1 0 2.3-1 2.8l-13.8 6.1 13.8 6.2c0.9 0.4 1.4 1.4 1.2 2.4-0.2 0.9-1.1 1.6-2.1 1.6z" fill="#67BECE"/>
  
  <!-- Синяя волна -->
  <path d="M157.7 156.9c-20 0-37.4-13.4-42.4-32.6-0.3-1.1 0.4-2.3 1.5-2.6 1.1-0.3 2.3 0.4 2.6 1.5 4.5 17.4 20.3 29.5 38.3 29.5 1.2 0 2.1 0.9 2.1 2.1 0 1.2-0.9 2.1-2.1 2.1z" fill="#3F54A3"/>
  
  <!-- Голубая линия -->
  <path d="M150.4 139.4c-1.2 0-2.1-0.9-2.1-2.1V97.2c0-1.2 0.9-2.1 2.1-2.1 1.2 0 2.1 0.9 2.1 2.1v40c0 1.2-0.9 2.1-2.1 2.1z" fill="#67BECE"/>
</svg>
